X: 398
T: Mopai diao
L: 1/8
M: 2/4
K: C
e d c d [I:setbarnb 1]| 
e g e d | 
cc2e | 
d B A G | 
AA2c | 
B A G A | 
E4 | 
A GA2 | 
zc2d | 
e B A G | 
AE2G | 
AA2c | 
B A G A | 
c B A G | 
E4 | 
e d c e | 
d B A G | 
AA2c | 
B A G A | 
c B A G | 
G4 |]

@@@ Tune index: 9272
